client/src/assets/svgs/PayProviders/paypal.svg

<svg viewBox="0 0 47 32" fill="none" xmlns="http://www.w3.org/2000/svg">
<path d="M0 4C0 1.791 1.80343 0 4.02854 0H42.9715C45.1966 0 47 1.791 47 4V28C47 30.209 45.1966 32 42.9715 32H4.02854C1.80343 32 0 30.209 0 28V4Z" fill="white"/>
<path d="M20.0741 24.598L20.3771 22.666L19.7021 22.65H16.4771L18.7181 8.39199C18.7251 8.34899 18.7471 8.30899 18.7801 8.27999C18.8131 8.25099 18.8551 8.23599 18.9001 8.23599H24.3381C26.1431 8.23599 27.3891 8.61299 28.0401 9.35699C28.3451 9.70599 28.5391 10.071 28.6331 10.472C28.7321 10.893 28.7331 11.396 28.6371 12.01L28.6301 12.055V12.448L28.9351 12.621C29.1921 12.758 29.3961 12.914 29.5521 13.093C29.8131 13.392 29.9821 13.771 30.0531 14.22C30.1271 14.682 30.1021 15.233 29.9821 15.856C29.8431 16.573 29.6181 17.197 29.3141 17.707C29.0351 18.178 28.6791 18.568 28.2561 18.87C27.8521 19.157 27.3731 19.376 26.8311 19.515C26.3061 19.652 25.7071 19.721 25.0501 19.721H24.6271C24.3241 19.721 24.0311 19.83 23.8001 20.026C23.5691 20.226 23.4161 20.499 23.3691 20.798L23.3371 20.972L22.8011 24.378L22.7771 24.503C22.7711 24.543 22.7591 24.562 22.7431 24.576C22.7291 24.588 22.7081 24.596 22.6871 24.596H20.0741V24.598Z" fill="#28356A"/>
<path d="M29.224 12.1C29.208 12.204 29.189 12.31 29.168 12.42C28.451 16.114 25.997 17.39 22.864 17.39H21.268C20.885 17.39 20.562 17.669 20.502 18.048L19.454 24.719C19.415 24.968 19.606 25.192 19.857 25.192H22.687C23.022 25.192 23.307 24.948 23.359 24.616L23.387 24.472L23.92 21.08L23.954 20.894C24.006 20.561 24.291 20.317 24.627 20.317H25.05C27.792 20.317 29.938 19.2 30.565 15.969C30.827 14.619 30.691 13.492 29.998 12.699C29.788 12.46 29.528 12.262 29.223 12.1H29.224Z" fill="#298FC2"/>
<path d="M28.474 11.8C28.364 11.768 28.251 11.739 28.135 11.713C28.019 11.687 27.899 11.665 27.776 11.645C27.346 11.575 26.874 11.542 26.369 11.542H22.107C22.002 11.542 21.902 11.566 21.813 11.609C21.616 11.704 21.47 11.89 21.435 12.119L20.528 17.881L20.502 18.049C20.562 17.67 20.885 17.391 21.268 17.391H22.864C25.998 17.391 28.451 16.114 29.168 12.421C29.189 12.312 29.207 12.205 29.224 12.101C29.043 12.004 28.846 11.922 28.634 11.851C28.582 11.834 28.528 11.817 28.473 11.801L28.474 11.8Z" fill="#22284F"/>
<path d="M21.4349 12.118C21.4699 11.889 21.6159 11.703 21.8129 11.609C21.9029 11.566 22.0019 11.542 22.1069 11.542H26.3689C26.8739 11.542 27.3449 11.575 27.7749 11.645C27.8979 11.665 28.0169 11.688 28.1339 11.713C28.2509 11.738 28.3629 11.768 28.4729 11.8C28.5269 11.816 28.5809 11.833 28.6339 11.85C28.8459 11.92 29.0419 12.004 29.2239 12.1C29.4369 10.735 29.2219 9.80499 28.4869 8.96399C27.6759 8.03699 26.2119 7.64099 24.3389 7.64099H18.9009C18.5179 7.64099 18.1919 7.91999 18.1329 8.29999L15.8679 22.705C15.8229 22.99 16.0419 23.247 16.3289 23.247H19.6859L21.4359 12.119L21.4349 12.118Z" fill="#28356A"/>
</svg>

<!-- Generated by IcoMoon.io -->
<svg version="1.1" xmlns="http://www.w3.org/2000/svg" width="47" height="32" viewBox="0 0 47 32">
<title>paypal</title>
<path fill="#fff" d="M0 4c0-2.209 1.792-4 4.003-4h38.696c2.211 0 4.003 1.791 4.003 4v24c0 2.209-1.792 4-4.003 4h-38.696c-2.211 0-4.003-1.791-4.003-4v-24z"></path>
<path fill="#28356a" d="M20.074 24.598l0.303-1.932-0.675-0.016h-3.225l2.241-14.258c0.007-0.043 0.029-0.083 0.062-0.112s0.075-0.044 0.12-0.044h5.438c1.805 0 3.051 0.377 3.702 1.121 0.305 0.349 0.499 0.714 0.593 1.115 0.099 0.421 0.1 0.924 0.004 1.538l-0.007 0.045v0.393l0.305 0.173c0.257 0.137 0.461 0.293 0.617 0.472 0.261 0.299 0.43 0.678 0.501 1.127 0.074 0.462 0.049 1.013-0.071 1.636-0.139 0.717-0.364 1.341-0.668 1.851-0.279 0.471-0.635 0.861-1.058 1.163-0.404 0.287-0.883 0.506-1.425 0.645-0.525 0.137-1.124 0.206-1.781 0.206h-0.423c-0.303 0-0.596 0.109-0.827 0.305-0.231 0.2-0.384 0.473-0.431 0.772l-0.032 0.174-0.536 3.406-0.024 0.125c-0.006 0.040-0.018 0.059-0.034 0.073-0.014 0.012-0.035 0.020-0.056 0.020h-2.613z"></path>
<path fill="#298fc2" d="M29.224 12.1c-0.016 0.104-0.035 0.21-0.056 0.32-0.717 3.694-3.171 4.97-6.304 4.97h-1.596c-0.383 0-0.706 0.279-0.766 0.658l-1.048 6.671c-0.039 0.249 0.152 0.473 0.403 0.473h2.83c0.335 0 0.62-0.244 0.672-0.576l0.028-0.144 0.533-3.392 0.034-0.186c0.052-0.333 0.337-0.577 0.673-0.577h0.423c2.742 0 4.888-1.117 5.515-4.348 0.262-1.35 0.126-2.477-0.567-3.27-0.21-0.239-0.47-0.437-0.775-0.599z"></path>
<path fill="#22284f" d="M28.474 11.8c-0.11-0.032-0.223-0.061-0.339-0.087s-0.236-0.048-0.359-0.068c-0.43-0.070-0.902-0.103-1.407-0.103h-4.262c-0.105 0-0.205 0.024-0.294 0.067-0.197 0.095-0.343 0.281-0.378 0.51l-0.907 5.762-0.026 0.168c0.060-0.379 0.383-0.658 0.766-0.658h1.596c3.134 0 5.587-1.277 6.304-4.97 0.021-0.109 0.039-0.216 0.056-0.32-0.181-0.097-0.378-0.179-0.59-0.25-0.052-0.017-0.106-0.034-0.161-0.050z"></path>
<path fill="#28356a" d="M21.435 12.118c0.035-0.229 0.181-0.415 0.378-0.509 0.090-0.043 0.189-0.067 0.294-0.067h4.262c0.505 0 0.976 0.033 1.406 0.103 0.123 0.020 0.242 0.043 0.359 0.068s0.229 0.055 0.339 0.087c0.054 0.016 0.108 0.033 0.161 0.050 0.212 0.070 0.408 0.154 0.59 0.25 0.213-1.365-0.002-2.295-0.737-3.136-0.811-0.927-2.275-1.323-4.148-1.323h-5.438c-0.383 0-0.709 0.279-0.768 0.659l-2.265 14.405c-0.045 0.285 0.174 0.542 0.461 0.542h3.357l1.75-11.128z"></path>
</svg>
